src/assets/images/icons/logo.svg

<svg width="232" height="88" viewBox="0 0 232 88" fill="none" xmlns="http://www.w3.org/2000/svg">
<path fill-rule="evenodd" clip-rule="evenodd" d="M86.2489 55.7267C81.8978 51.2572 61.2669 38.6182 54.6958 34.1782L15.2396 61.913L25.8954 62.2978L54.6958 42.9693L77.1027 57.6803L76.9251 58.2723C71.3011 77.216 35.9593 92.1342 15.21 64.9914C1.091 46.5508 9.26048 9.78819 43.9216 8.07141L44.336 0.0203325C8.87568 -1.07485 -13.6496 42.3181 9.29008 70.8817C17.726 81.3599 32.9401 91.187 53.7486 87.0134C67.986 84.1719 84.8281 69.9937 86.2489 55.7267Z" fill="#53669D"/>
<path fill-rule="evenodd" clip-rule="evenodd" d="M47.5327 54.8389H52.7126V60.0188H47.5327V54.8389Z" fill="#2FA3E0"/>
<path fill-rule="evenodd" clip-rule="evenodd" d="M54.9617 54.8389H60.1416V60.0188H54.9617V54.8389Z" fill="#2FA3E0"/>
<path fill-rule="evenodd" clip-rule="evenodd" d="M47.5327 62.0913H52.7126V67.2416H47.5327V62.0913Z" fill="#2FA3E0"/>
<path fill-rule="evenodd" clip-rule="evenodd" d="M54.9617 62.0913H60.1416V67.2416H54.9617V62.0913Z" fill="#2FA3E0"/>
<path d="M107.176 13.9027C110.225 13.9027 112.504 14.7019 113.984 16.3299C115.464 17.9579 116.204 20.3258 116.204 23.4338V28.4361C116.204 31.5737 115.464 33.9416 113.984 35.54C112.504 37.168 110.225 37.9672 107.176 37.9672H104.305V52.471H98.2666V13.9027H107.176ZM104.305 19.4083V32.4617H107.176C108.123 32.4617 108.863 32.2249 109.366 31.6921C109.899 31.1889 110.166 30.2417 110.166 28.8209V23.049C110.166 21.6578 109.899 20.7106 109.366 20.1778C108.863 19.6746 108.123 19.4083 107.176 19.4083H104.305ZM125.084 30.1529H133.401V35.6584H125.084V46.9654H135.562V52.471H119.016V13.9027H135.562V19.4083H125.084V30.1529ZM152.138 41.2823L156.252 13.9027H164.688V52.471H158.975V24.825L154.772 52.471H149.059L144.531 25.2098V52.471H139.232V13.9027H147.668L152.138 41.2823ZM174.663 43.5911C174.663 44.9823 174.959 45.9887 175.521 46.551C176.084 47.1134 176.853 47.4094 177.801 47.4094C178.748 47.4094 179.517 47.1134 180.08 46.551C180.642 45.9887 180.938 44.9823 180.938 43.5911V22.7826C180.938 21.3914 180.642 20.385 180.08 19.8226C179.517 19.2603 178.748 18.9643 177.801 18.9643C176.853 18.9643 176.084 19.2603 175.521 19.8226C174.959 20.385 174.663 21.3914 174.663 22.7826V43.5911ZM168.595 23.1674C168.595 20.0298 169.394 17.6323 170.963 15.9747C172.561 14.2875 174.841 13.4587 177.801 13.4587C180.79 13.4587 183.04 14.2875 184.638 15.9747C186.207 17.6323 187.006 20.0298 187.006 23.1674V43.2063C187.006 46.3438 186.207 48.7414 184.638 50.399C183.04 52.0862 180.79 52.915 177.801 52.915C174.841 52.915 172.561 52.0862 170.963 50.399C169.394 48.7414 168.595 46.3438 168.595 43.2063V23.1674ZM196.981 52.471H190.913V13.9027H196.981V30.4193H203.848V13.9027H210.035V52.471H203.848V35.9544H196.981V52.471ZM212.669 13.9027H231.405V19.4083H225.071V52.471H219.003V19.4083H212.669V13.9027Z" fill="#2B2A29"/>
<path d="M98.7988 77.5116V62.3862H113.954V77.5116H111.793V64.547H100.96V77.5116H98.7988ZM115.907 73.1901V66.7078C115.907 66.1158 116.026 65.5534 116.233 65.0206C116.47 64.5174 116.766 64.0438 117.18 63.659C117.565 63.2742 118.009 62.9486 118.542 62.7118C119.075 62.475 119.637 62.3862 120.229 62.3862H126.711C127.303 62.3862 127.836 62.475 128.369 62.7118C128.872 62.9486 129.346 63.2742 129.73 63.659C130.145 64.0438 130.441 64.5174 130.678 65.0206C130.914 65.5534 131.033 66.1158 131.033 66.7078V73.1901C131.033 73.7821 130.944 74.3445 130.707 74.8772C130.47 75.41 130.145 75.854 129.76 76.2388C129.375 76.6236 128.902 76.9492 128.398 77.186C127.866 77.3932 127.303 77.5116 126.711 77.5116H120.229C119.637 77.5116 119.045 77.4228 118.512 77.186C118.009 76.9788 117.535 76.6532 117.151 76.2684C116.766 75.8836 116.44 75.41 116.233 74.9068C115.996 74.3741 115.907 73.8117 115.907 73.1901ZM118.068 73.1901C118.068 73.8117 118.275 74.3149 118.69 74.7292C119.104 75.1436 119.637 75.3508 120.229 75.3508H126.711C127.333 75.3508 127.836 75.1436 128.25 74.7292C128.665 74.3149 128.872 73.8117 128.872 73.1901V66.7078C128.872 66.0862 128.665 65.583 128.25 65.1686C127.836 64.7542 127.333 64.547 126.711 64.547H120.229C119.637 64.547 119.104 64.7542 118.69 65.1686C118.275 65.583 118.068 66.0862 118.068 66.7078V73.1901ZM131.921 77.5116V75.3508H134.082V66.7078C134.082 66.1158 134.17 65.583 134.407 65.0502C134.614 64.547 134.94 64.0734 135.325 63.6886C135.709 63.3038 136.183 62.9782 136.686 62.7414C137.219 62.5046 137.781 62.3862 138.403 62.3862H149.236V75.3508H151.368V77.5116H131.921ZM136.242 75.3508H147.046V64.547H138.403C137.781 64.547 137.278 64.7542 136.864 65.1686C136.449 65.583 136.242 66.0862 136.242 66.7078V75.3508ZM161.106 77.5116V62.3862H163.296V68.8685H166.73L173.212 62.3862H176.261L168.683 69.9341L176.261 77.5116H173.212L166.73 71.0293H163.296V77.5116H161.106ZM177.356 77.5116V66.7078C177.356 66.1158 177.474 65.583 177.682 65.0502C177.918 64.547 178.214 64.103 178.599 63.6886C178.984 63.3038 179.458 63.0078 179.99 62.7414C180.523 62.5046 181.086 62.3862 181.678 62.3862H192.511V77.5116H190.321V64.547H181.678C181.086 64.547 180.553 64.7542 180.138 65.1686C179.724 65.583 179.517 66.0862 179.517 66.7078V77.5116H177.356ZM194.672 77.5116V62.3862H196.833V68.8685H198.993V66.7078C198.993 66.1158 199.112 65.583 199.319 65.0502C199.556 64.547 199.852 64.0734 200.237 63.6886C200.621 63.3038 201.095 62.9782 201.628 62.7414C202.16 62.5046 202.723 62.3862 203.315 62.3862H209.797C210.36 62.3862 210.922 62.475 211.425 62.7118C211.958 62.9486 212.432 63.2446 212.816 63.6294C213.231 64.0142 213.527 64.4878 213.764 64.991C214.03 65.5238 214.148 66.0862 214.148 66.7078V73.1901C214.148 73.7821 214.03 74.3149 213.793 74.8476C213.586 75.3508 213.26 75.8244 212.876 76.2092C212.491 76.594 212.047 76.9196 211.514 77.1564C210.981 77.3932 210.419 77.5116 209.797 77.5116H203.315C202.752 77.5116 202.19 77.4228 201.657 77.186C201.124 76.9788 200.681 76.6532 200.266 76.2684C199.881 75.8836 199.556 75.41 199.349 74.8772C199.112 74.3741 198.993 73.7821 198.993 73.1901V71.0293H196.833V77.5116H194.672ZM201.154 73.1901C201.154 73.8117 201.361 74.3149 201.776 74.7292C202.19 75.1436 202.723 75.3508 203.315 75.3508H209.797C210.419 75.3508 210.922 75.1436 211.336 74.7292C211.751 74.3149 211.988 73.8117 211.988 73.1901V66.7078C211.988 66.0862 211.751 65.583 211.336 65.1686C210.922 64.7542 210.419 64.547 209.797 64.547H203.315C202.723 64.547 202.19 64.7542 201.776 65.1686C201.361 65.583 201.154 66.0862 201.154 66.7078V73.1901ZM215.865 67.7733V62.3862H218.026V67.7733C218.026 68.3653 218.233 68.8685 218.647 69.3125C219.062 69.7269 219.595 69.9341 220.187 69.9341H228.859V62.3862H231.02V77.5116H228.859V72.0949H220.187C219.624 72.0949 219.062 71.9765 218.529 71.7397C217.996 71.5325 217.552 71.2069 217.138 70.8221C216.753 70.4373 216.427 69.9933 216.191 69.4605C215.983 68.9277 215.865 68.3653 215.865 67.7733Z" fill="#53669D"/>
<path fill-rule="evenodd" clip-rule="evenodd" d="M15.3577 47.7053L25.2735 48.0901L55.0211 29.324L88.3206 50.3397L88.4094 42.7622L53.9555 20.1777L35.811 32.5503V27.6072H26.5167V39.5062L15.3577 47.7053Z" fill="#2FA3E0"/>
</svg>

<svg width="232" height="88" fill="none" xmlns="http://www.w3.org/2000/svg"><path fill-rule="evenodd" clip-rule="evenodd" d="M86.249 55.727c-4.351-4.47-24.982-17.109-31.553-21.549L15.24 61.913l10.655.385 28.8-19.329L77.104 57.68l-.178.592c-5.624 18.944-40.966 33.862-61.715 6.72C1.091 46.55 9.26 9.787 43.922 8.071L44.336.02C8.876-1.075-13.65 42.318 9.29 70.882c8.436 10.478 23.65 20.305 44.46 16.131 14.237-2.841 31.08-17.02 32.5-31.286z" fill="#53669D"/><path fill-rule="evenodd" clip-rule="evenodd" d="M47.533 54.839h5.18v5.18h-5.18v-5.18zm7.429 0h5.18v5.18h-5.18v-5.18zm-7.429 7.252h5.18v5.15h-5.18v-5.15zm7.429 0h5.18v5.15h-5.18v-5.15z" fill="#2FA3E0"/><path d="M107.176 13.903c3.049 0 5.328.799 6.808 2.427 1.48 1.628 2.22 3.996 2.22 7.104v5.002c0 3.138-.74 5.506-2.22 7.104-1.48 1.628-3.759 2.427-6.808 2.427h-2.871v14.504h-6.038V13.903h8.909zm-2.871 5.505v13.054h2.871c.947 0 1.687-.237 2.19-.77.533-.503.8-1.45.8-2.871v-5.772c0-1.391-.267-2.338-.8-2.871-.503-.503-1.243-.77-2.19-.77h-2.871zm20.779 10.745h8.317v5.505h-8.317v11.307h10.478v5.506h-16.546V13.903h16.546v5.505h-10.478v10.745zm27.054 11.13l4.114-27.38h8.436V52.47h-5.713V24.825l-4.203 27.646h-5.713l-4.528-27.261v27.26h-5.299V13.903h8.436l4.47 27.38zm22.525 2.308c0 1.391.296 2.398.858 2.96.563.562 1.332.858 2.28.858.947 0 1.716-.296 2.279-.858.562-.562.858-1.569.858-2.96V22.783c0-1.392-.296-2.398-.858-2.96-.563-.563-1.332-.859-2.279-.859-.948 0-1.717.296-2.28.859-.562.562-.858 1.568-.858 2.96V43.59zm-6.068-20.424c0-3.137.799-5.535 2.368-7.192 1.598-1.688 3.878-2.516 6.838-2.516 2.989 0 5.239.829 6.837 2.516 1.569 1.657 2.368 4.055 2.368 7.192v20.04c0 3.137-.799 5.534-2.368 7.192-1.598 1.687-3.848 2.516-6.837 2.516-2.96 0-5.24-.829-6.838-2.516-1.569-1.658-2.368-4.055-2.368-7.193V23.167zm28.386 29.304h-6.068V13.903h6.068v16.516h6.867V13.903h6.187V52.47h-6.187V35.954h-6.867v16.517zm15.688-38.568h18.736v5.505h-6.334v33.063h-6.068V19.408h-6.334v-5.505z" fill="#2B2A29"/><path d="M98.799 77.512V62.386h15.155v15.126h-2.161V64.547H100.96v12.965h-2.161zm17.108-4.322v-6.482c0-.592.119-1.155.326-1.687.237-.504.533-.977.947-1.362a4.49 4.49 0 011.362-.947c.533-.237 1.095-.326 1.687-.326h6.482c.592 0 1.125.089 1.658.326.503.237.977.562 1.361.947.415.385.711.858.948 1.362.236.532.355 1.095.355 1.687v6.482c0 .592-.089 1.154-.326 1.687a4.488 4.488 0 01-.947 1.362c-.385.385-.858.71-1.362.947a4.62 4.62 0 01-1.687.326h-6.482c-.592 0-1.184-.09-1.717-.326a4.241 4.241 0 01-1.361-.918 4.245 4.245 0 01-.918-1.361c-.237-.533-.326-1.095-.326-1.717zm2.161 0c0 .622.207 1.125.622 1.54.414.414.947.62 1.539.62h6.482c.622 0 1.125-.206 1.539-.62.415-.415.622-.918.622-1.54v-6.482c0-.622-.207-1.125-.622-1.54-.414-.414-.917-.621-1.539-.621h-6.482c-.592 0-1.125.207-1.539.622-.415.414-.622.917-.622 1.539v6.482zm13.853 4.322V75.35h2.161v-8.643c0-.592.088-1.125.325-1.658.207-.503.533-.977.918-1.361.384-.385.858-.71 1.361-.948a4.146 4.146 0 011.717-.355h10.833V75.35h2.132v2.16h-19.447zm4.321-2.161h10.804V64.547h-8.643c-.622 0-1.125.207-1.539.622-.415.414-.622.917-.622 1.539v8.643zm24.864 2.16V62.387h2.19v6.482h3.434l6.482-6.482h3.049l-7.578 7.548 7.578 7.578h-3.049l-6.482-6.483h-3.434v6.483h-2.19zm16.25 0V66.709c0-.592.118-1.125.326-1.658a5.22 5.22 0 01.917-1.361c.385-.385.859-.681 1.391-.948a4.113 4.113 0 011.688-.355h10.833v15.126h-2.19V64.547h-8.643c-.592 0-1.125.207-1.54.622-.414.414-.621.917-.621 1.539v10.804h-2.161zm17.316 0V62.387h2.161v6.482h2.16v-2.16c0-.592.119-1.125.326-1.658.237-.503.533-.977.918-1.361.384-.385.858-.71 1.391-.948a4.105 4.105 0 011.687-.355h6.482c.563 0 1.125.089 1.628.326.533.237 1.007.533 1.391.917.415.385.711.859.948 1.362a3.75 3.75 0 01.384 1.717v6.482c0 .592-.118 1.125-.355 1.658a4.258 4.258 0 01-.917 1.361 4.49 4.49 0 01-1.362.947 4.146 4.146 0 01-1.717.356h-6.482c-.563 0-1.125-.09-1.658-.326-.533-.207-.976-.533-1.391-.918a4.065 4.065 0 01-.917-1.39 4.006 4.006 0 01-.356-1.688v-2.16h-2.16v6.482h-2.161zm6.482-4.32c0 .62.207 1.124.622 1.538.414.415.947.622 1.539.622h6.482c.622 0 1.125-.207 1.539-.622.415-.414.652-.917.652-1.539v-6.482c0-.622-.237-1.125-.652-1.54-.414-.414-.917-.621-1.539-.621h-6.482c-.592 0-1.125.207-1.539.622-.415.414-.622.917-.622 1.539v6.482zm14.711-5.418v-5.387h2.161v5.387c0 .592.207 1.096.621 1.54.415.414.948.621 1.54.621h8.672v-7.548h2.161v15.126h-2.161v-5.417h-8.672a4.074 4.074 0 01-1.658-.355c-.533-.207-.977-.533-1.391-.918a4.47 4.47 0 01-.947-1.362 4.609 4.609 0 01-.326-1.687z" fill="#53669D"/><path fill-rule="evenodd" clip-rule="evenodd" d="M15.358 47.705l9.915.385 29.748-18.766 33.3 21.016.088-7.578-34.454-22.584L35.812 32.55v-4.943h-9.294v11.9l-11.16 8.198z" fill="#2FA3E0"/></svg>
